!!!!SEGMENT: pl-wtm--670-sp-3678--001-025_gruber-franz-xaver--piosenki-dla-mlodocianego-wieku-piotr-maszynski-25-swieta-noc.krn
!!!cenid: 18xx:4777
!!!COM: Gruber, Franz Xaver
!!!COM-rismID: pe89392
!!!CDT: 1787/11/25-1863/06/07
!!!CNT: Austrian
!!!GTL: Piosenki dla młodocianego wieku (Piotr Maszyński)
!!!OTL: 25. Święta noc
!!!OMV: 025
!!!PDT: 1871
!!!AGN: Secular; Song; Children
!!!YEC: Copyright 2022 Narodowy Instytut Fryderyka Chopina (https://polishscores.org)
!!!YEM: License CC-BY-4.0 (https://creativecommons.org/licenses/by/4.0)
!!!SMS-siglum: PL-Wtm
!!!SMS-shelfmark: 670 śp 3678
!!!SMS-variant:
!!!SMS-altvar:
!!!SMS-shelfwork: 001-025 G
!!!NIFC-rismSourceID: 1001185478
!!!NIFC-rismChildID: 1001185478
!!!NIFC-islandoraID: pl-wtm:57754
!!!URL-pdf-islandora: https://repozytorium.nifc.pl/islandora/object/pl-wtm%3A57754/datastream/PDF/view
!!!URL-scan: https://polish.musicsources.pl/pl/lokalizacje/galeria/druki-muzyczne/19483/16 @EN{Scan on Polish Music Sources Website} @PL{Skany w portalu Dziedzictwo Muzyki Polskiej w otwartym dostępie}
!!!IIIF:
!!!ONB-nifc:
!!!AIN: 1 piano 1 vox
!!!key: C
!!!OMD: Moderato.
**kern	**fing	**kern	**fing	**dynam	**kern	**text	**text	**text	**dynam
*part2	*part2	*part2	*part2	*part2	*part1	*part1	*part1	*part1	*part1
*staff3	*staff3	*staff2	*staff2	*staff2/3	*staff1	*staff1	*staff1	*staff1	*staff1
*I"Fortepian.	*	*I"Fortepian.	*	*	*I"Śpiew.	*	*	*	*
*I'pf	*	*I'pf	*	*	*I'V	*	*	*	*
*Ipiano	*	*Ipiano	*	*	*Ivox	*	*	*	*
*ICklav	*	*ICklav	*	*	*ICvox	*	*	*	*
*IGacmp	*	*IGacmp	*	*	*IGsolo	*	*	*	*
*>[A,A,A]	*>[A,A,A]	*>[A,A,A]	*>[A,A,A]	*>[A,A,A]	*>[A,A,A]	*>[A,A,A]	*>[A,A,A]	*>[A,A,A]	*>[A,A,A]
*>A	*>A	*>A	*>A	*>A	*>A	*>A	*>A	*>A	*>A
*clefF4	*	*clefG2	*	*	*clefG2	*	*	*	*
*k[]	*	*k[]	*	*	*k[]	*	*	*	*
*C:	*	*C:	*	*	*C:	*	*	*	*
*M6/8	*	*M6/8	*	*	*M6/8	*	*	*	*
=1	=1	=1	=1	=1	=1	=1	=1	=1	=1
*	*	*	*	*	*^	*	*	*	*
*	*	*	*	*	*	*	*v :1.2.3.	*	*	*
4.G 4.C\	.	(8.gL 8.e/	2 4	p	(8.g/L	(8.e\L	Ci-	.	.	p
!	!	!LO:TX:b:i:t=dolce	!	!	!LO:TX:a:i:t=dolce	!	!	!	!	!
.	.	.	.	.	.	.	.	.	.	.
.	.	16aK 16f/	.	.	16a/Jk)	16f\Jk)	.	.	.	.
.	.	8gJ 8e/)	.	.	8g/	8e\	-cha	.	.	.
4.G 4.C\	.	4.e 4.c/	.	.	4.e/	4.c\	noc,	.	.	.
=2	=2	=2	=2	=2	=2	=2	=2	=2	=2	=2
4.G 4.C\	.	(8.gL 8.e/	.	.	8.g/L	8.e\L	świę-	.	.	.
.	.	16aK 16f/	.	.	16a/Jk	16f\Jk	.	.	.	.
.	.	8gJ 8e/)	.	.	8g/	8e\	-ta	.	.	.
4.G 4.C\	.	4.e 4.c/	.	.	4.e/	4.c\	noc!	.	.	.
=3	=3	=3	=3	=3	=3	=3	=3	=3	=3	=3
*	*below	*	*	*	*	*	*v :1	*v :2	*v :3	*
!	!	!LO:TX:a:t=P:problem=palcowanie obok nut	!	!	!	!	!	!	!	!
4B 4G\	2 4	4dd 4f/	1 5	.	4dd/	4f\	Po-	Pa-	Na-	.
8B 8G\	.	8dd 8f/	.	.	8dd/	8f\	-kój	-stusz-	-ro-	.
4d 4G\	.	4b 4f/	.	.	4b/	4f\	nie-	-ko-	-dzo-	.
8d 8G\	.	8b 8f/	.	.	8b/	8f\	-sie	-wie	-ny	.
=4	=4	=4	=4	=4	=4	=4	=4	=4	=4	=4
4c 4C\	.	4cc 4e/	.	.	4cc/	4e\	lu-	od	Bo-	.
8c 8C\	.	8cc 8e/	.	.	8cc/	8e\	-dziom	swych	-ży	.
4.c 4.C\	.	4.g 4.e/	1 2	.	4.g/	4.e\	wszem,	trzód	Syn,	.
!!LO:LB:g=original
=5	=5	=5	=5	=5	=5	=5	=5	=5	=5	=5
!LO:TX:b:t=P:problem=palcowanie obok nut	!	!	!	!	!	!	!	!	!	!
4.c 4.F\	1 3	4a 4f/	1 3	.	4a/	4f\	a	bie-	Pan	.
.	.	8a 8f/	.	.	8a/	8f\	u	-gą	wiel-	.
4.c 4.F\	.	(8.ccL 8.a/	.	.	8.cc/L	8.a\L	żłób-	wiel-	-kie-	.
.	.	16bK 16g/	.	.	16b/Jk	16g\Jk	.	.	.	.
.	.	8aJ 8f/)	.	.	8a/	8f\	-ka	-ce	-go	.
=6	=6	=6	=6	=6	=6	=6	=6	=6	=6	=6
!	!	!LO:TX:a:t=P:problem=palcowanie obok nut	!	!	!	!	!	!	!	!
4.c 4.C\	.	(8.gL 8.e/	2 4	.	8.g/L	8.e\L	Mat-	za-	ma-	.
.	.	16aK 16f/	.	.	16a/Jk	16f\Jk	.	.	.	.
.	.	8gJ 8e/)	.	.	8g/	8e\	-ka	-dzi-	-je-	.
4.c 4.C\	.	4e 4c/	.	.	4e/	4c\	świę-	-wie-	-sta-	.
.	.	8e 8c/	.	.	8e/	8c\	-ta	-ni	-tu	.
=7	=7	=7	=7	=7	=7	=7	=7	=7	=7	=7
4.c 4.F\	.	4a 4f/	1 3	.	4a/	4f\	czu-	za	nie-	.
.	.	8a 8f/	.	.	8a/	8f\	-wa	a-	-sie	.
4.c 4.F\	.	(8.ccL 8.a/	.	.	8.cc/L	8.a\L	sa-	-niel-	dziś	.
.	.	16bK 16g/	.	.	16b/Jk	16g\Jk	.	.	.	.
.	.	8aJ 8f/)	.	.	8a/	8f\	-ma	-skich	ca-	.
=8	=8	=8	=8	=8	=8	=8	=8	=8	=8	=8
4.c 4.C\	.	(8.gL 8.e/	.	.	8.g/L	8.e\L	u-	gło-	-łe-	.
.	.	16aK 16f/	.	.	16a/Jk	16f\Jk	.	.	.	.
.	.	8gJ 8e/)	.	.	8g/	8e\	-śmiech-	-sem	-mu	.
4.c 4.C\	.	4e 4c/	.	.	4e/	4c\	-nię-	pie-	świa-	.
.	.	8e 8c/	.	.	8e/	8c\	-ta	-ni	-tu	.
!!LO:LB:g=original
=9	=9	=9	=9	=9	=9	=9	=9	=9	=9	=9
*^	*	*^	*	*	*	*	*	*	*	*
4B 4G\	4.ryy	3 5	4dd 4g\	4.ryy	.	.	4dd/	4g\	nad	gdzie	od-	.
8B 8G\	.	.	8dd 8g\	.	.	<	8dd/	8g\	Dzie-	się	-ku-	<
(4B/	4.G\	.	8.ff/L	4.g\	.	.	8.ff/L	4g\	-ciąt-	speł-	-pie-	.
.	.	.	16dd/K	.	.	.	16dd/Jk	.	.	.	.	.
8f/)	.	.	8b/J	.	.	[	8b/	8f\	-ka	-nił	-nie	[
*v	*v	*	*	*	*	*	*	*	*	*	*	*
*	*	*v	*v	*	*	*	*	*	*	*	*
=10	=10	=10	=10	=10	=10	=10	=10	=10	=10	=10
[4.e [4.c\	.	(4.cc [4.g/	1 3	>	(4.cc/	(4.e\	snem,	cud,	win,	>
4e] 4c\]	.	4ee 4g\])	.	]	4ee/)	4g\)	.	.	.	]
8r	.	8r	.	.	8r	8ryy	.	.	.	.
=11	=11	=11	=11	=11	=11	=11	=11	=11	=11	=11
*	*	*^	*	*	*	*	*	*	*	*
!	!	!LO:TX:a:t=P:problem=palcowanie obok nut	!	!	!	!	!	!	!	!	!
4G 4GG/	.	(8.cc/L	4e\	1 5	.	(8.cc/L	4e\	nad	gdzie	od-	.
.	.	16g/K	.	.	.	16g/Jk)	.	.	.	.	.
8G 8GG/	.	8e/J)	8c\	.	.	8e/	8c\	Dzie-	się	-ku-	.
!	!	!LO:TX:a:t=P:problem=palcowanie obok nut	!	!	!	!	!	!	!	!	!
4D 4GG/	.	(8.g/L	4B\	1 5	.	8.g/L	4B\	-ciąt-	speł-	-pie-	.
.	.	16f/K	.	.	.	16f/Jk	.	.	.	.	.
8F 8GG/	.	8d/J)	8B\	.	.	8d/	8B\	-ka	-nił	-nie	.
*	*	*v	*v	*	*	*	*	*	*	*	*
=12	=12	=12	=12	=12	=12	=12	=12	=12	=12	=12
*^	*	*	*	*	*	*	*	*	*	*
!LO:TX:a:t=P:problem=palcowanie obok nut	!	!	!	!	!	!	!	!	!	!	!
(4E/	[4.C\	2 4	[4.c/	1	.	[4.c/	[4.c\	snem.	cud.	win.	.
8G/	.	.	.	.	.	.	.	.	.	.	.
4E/)	4C\]	.	4c/]	.	.	4c/]	4c\]	.	.	.	.
8r	8ryy	.	8r	.	.	8r	8ryy	.	.	.	.
*v	*v	*	*	*	*	*v	*v	*	*	*	*
==	==	==	==	==	==	==	==	==	==
*-	*-	*-	*-	*-	*-	*-	*-	*-	*-
!!!system-decoration: s1{(s2,s3)}
!!!ENC: Andrzej Gręziak
!!!END: 2025-03-26
!!!EED: Marta Lawrence
!!!EEV: 2025-03-31
